X:4060
T:Mason's Apron
O:england
M:4/4
L:1/8
C:Trad
R:Reel
K:A
|: g2 | a2 A2A3F | EFAB cABc | d2 B2B3A | GABc defg | a2 A2A3F | EFAB cA
Bc | dcde fgaf | edcB A2 :|
|: ed | c2e2f2e2 | c2e2 fedc | d2f2g2f2 | d2f2 gfed | c2e2f2e2 | c2e2 fe
dc | dcde fgaf | edcB A2 :|
